X:3650
T:Montagnard
T:la Crouzade
M:3/4
O:France
R:Montagnard
Z:Richard Robinson 
%%TUNEURL: http://www.leeds.ac.uk/music/Info/RRTuneBk/gettune/000006ac.html
%%ID:000006ac
K:G
d4 Bc| d4 Bc| d2c2B2|A6|\
A2B2c2|d2e2d2|c2B2A2|1B2G2G2:|2G4G2|\
|:AB c2B2|A4d2|edc2B2|1A2B2G2:|2A6:|\
|:GA|BcB BAG|A2F F2A|ABA GFE|1G2E EFG:|2G6:|
